svg/azure-load-balancers.svg

<?xml version="1.0" encoding="UTF-8"?>
<svg xmlns="http://www.w3.org/2000/svg" xmlns:xlink="http://www.w3.org/1999/xlink" width="32" height="32" viewBox="0 0 32 32">
<defs>
<linearGradient id="linear-pattern-0" gradientUnits="userSpaceOnUse" x1="9" y1="19.85" x2="9" y2="-1.02" gradientTransform="matrix(1.7149, 0, 0, 1.7149, 0.617, 0.617)">
<stop offset="0" stop-color="rgb(36.862745%, 58.823529%, 14.117647%)" stop-opacity="1"/>
<stop offset="0.02" stop-color="rgb(37.254902%, 59.215686%, 14.117647%)" stop-opacity="1"/>
<stop offset="1" stop-color="rgb(46.27451%, 73.72549%, 17.647059%)" stop-opacity="1"/>
</linearGradient>
</defs>
<path fill-rule="nonzero" fill="url(#linear-pattern-0)" d="M 0.925781 15.3125 L 15.3125 0.925781 C 15.507812 0.726562 15.773438 0.613281 16.050781 0.613281 C 16.328125 0.613281 16.59375 0.726562 16.789062 0.925781 L 31.175781 15.3125 C 31.375 15.503906 31.484375 15.773438 31.484375 16.050781 C 31.484375 16.328125 31.375 16.59375 31.175781 16.789062 L 16.773438 31.195312 C 16.371094 31.585938 15.730469 31.585938 15.332031 31.195312 L 0.925781 16.789062 C 0.726562 16.597656 0.613281 16.328125 0.613281 16.050781 C 0.613281 15.773438 0.726562 15.507812 0.925781 15.3125 M 0.925781 15.3125 "/>
<path fill-rule="nonzero" fill="rgb(70.588235%, 92.54902%, 21.176471%)" fill-opacity="1" d="M 19.824219 7.476562 L 16.1875 3.859375 C 16.109375 3.789062 15.992188 3.789062 15.914062 3.859375 L 12.277344 7.476562 C 12.210938 7.527344 12.1875 7.613281 12.21875 7.6875 C 12.25 7.761719 12.332031 7.804688 12.414062 7.785156 L 14.542969 7.785156 C 14.648438 7.785156 14.730469 7.871094 14.730469 7.972656 L 14.730469 11.402344 C 14.730469 11.453125 14.75 11.5 14.785156 11.539062 C 14.820312 11.574219 14.867188 11.59375 14.917969 11.59375 L 17.183594 11.59375 C 17.234375 11.59375 17.28125 11.574219 17.316406 11.535156 C 17.351562 11.5 17.371094 11.453125 17.371094 11.402344 L 17.371094 7.972656 C 17.371094 7.867188 17.457031 7.785156 17.5625 7.785156 L 19.6875 7.785156 C 19.769531 7.804688 19.851562 7.765625 19.886719 7.6875 C 19.914062 7.609375 19.890625 7.523438 19.824219 7.476562 M 7.476562 11.953125 L 3.875 15.605469 C 3.808594 15.679688 3.808594 15.789062 3.875 15.863281 L 7.476562 19.480469 C 7.53125 19.535156 7.613281 19.554688 7.6875 19.527344 C 7.757812 19.492188 7.804688 19.421875 7.804688 19.34375 L 7.804688 17.234375 C 7.804688 17.128906 7.886719 17.046875 7.992188 17.046875 L 11.421875 17.046875 C 11.46875 17.046875 11.515625 17.027344 11.550781 16.992188 C 11.582031 16.953125 11.597656 16.90625 11.59375 16.859375 L 11.59375 14.59375 C 11.621094 14.542969 11.625 14.484375 11.601562 14.433594 C 11.578125 14.382812 11.527344 14.34375 11.472656 14.335938 L 8.042969 14.335938 C 7.996094 14.339844 7.949219 14.324219 7.910156 14.292969 C 7.875 14.261719 7.855469 14.214844 7.855469 14.164062 L 7.855469 12.089844 C 7.875 12.039062 7.875 11.984375 7.851562 11.9375 C 7.828125 11.886719 7.789062 11.847656 7.734375 11.832031 C 7.628906 11.796875 7.515625 11.851562 7.476562 11.953125 M 24.761719 19.480469 L 28.414062 15.84375 C 28.484375 15.773438 28.484375 15.660156 28.414062 15.589844 L 24.761719 11.953125 C 24.707031 11.90625 24.632812 11.898438 24.566406 11.925781 C 24.503906 11.957031 24.460938 12.019531 24.453125 12.089844 L 24.453125 14.234375 C 24.453125 14.28125 24.433594 14.328125 24.398438 14.363281 C 24.363281 14.394531 24.316406 14.410156 24.265625 14.40625 L 20.835938 14.40625 C 20.789062 14.40625 20.742188 14.425781 20.707031 14.460938 C 20.675781 14.496094 20.660156 14.546875 20.664062 14.59375 L 20.664062 16.859375 C 20.664062 16.90625 20.679688 16.953125 20.710938 16.988281 C 20.742188 17.023438 20.789062 17.046875 20.835938 17.046875 L 24.265625 17.046875 C 24.371094 17.046875 24.453125 17.128906 24.453125 17.234375 L 24.453125 19.359375 C 24.460938 19.429688 24.507812 19.488281 24.574219 19.511719 C 24.636719 19.539062 24.710938 19.527344 24.761719 19.480469 M 24.761719 19.480469 "/>
<path fill-rule="nonzero" fill="rgb(100%, 100%, 100%)" fill-opacity="1" d="M 20.835938 16.050781 C 20.851562 13.570312 18.972656 11.492188 16.503906 11.257812 C 14.035156 11.023438 11.796875 12.710938 11.347656 15.148438 C 10.894531 17.585938 12.378906 19.964844 14.765625 20.628906 L 14.765625 22.257812 C 13.5625 22.878906 12.941406 24.242188 13.261719 25.554688 C 13.582031 26.871094 14.757812 27.796875 16.113281 27.796875 C 17.464844 27.796875 18.640625 26.871094 18.960938 25.554688 C 19.28125 24.242188 18.660156 22.878906 17.457031 22.257812 L 17.457031 20.542969 C 19.445312 19.945312 20.8125 18.125 20.835938 16.050781 M 20.835938 16.050781 "/>
<path fill-rule="nonzero" fill="rgb(36.862745%, 62.745098%, 93.72549%)" fill-opacity="1" d="M 18.847656 16.035156 C 18.824219 17.550781 17.585938 18.765625 16.070312 18.761719 C 14.554688 18.761719 13.320312 17.550781 13.289062 16.035156 C 13.320312 14.519531 14.554688 13.308594 16.070312 13.308594 C 17.582031 13.308594 18.820312 14.519531 18.847656 16.035156 M 18.847656 16.035156 "/>
</svg>

<svg role="img" viewBox="0 0 32 32" height="32" width="32" xmlns="http://www.w3.org/2000/svg"><defs><linearGradient gradientTransform="translate(.617 .617)scale(1.7149)" gradientUnits="userSpaceOnUse" id="161__160__402__401__131__130__417__416__401__400__127__126__317__316__213__212__289__288__131__130__azure-load-balancers_svg__svg/azure-load-balancers.svg579__svg/azure-load-balancers.svg577__azure-load-balancers-lp-0" x1="9" x2="9" y1="19.85" y2="-1.02"><stop offset="0" stop-color="rgb(36.862745%, 58.823529%, 14.117647%)"/><stop offset=".02" stop-color="rgb(37.254902%, 59.215686%, 14.117647%)"/><stop offset="1" stop-color="rgb(46.27451%, 73.72549%, 17.647059%)"/></linearGradient></defs><path d="M.926 15.313 15.313.925a1.03 1.03 0 0 1 1.476 0l14.387 14.387c.199.19.308.46.308.738 0 .277-.109.543-.308.738L16.773 31.195c-.402.39-1.043.39-1.441 0L.926 16.79a1.028 1.028 0 0 1 0-1.477m0 0" fill="url(#161__160__402__401__131__130__417__416__401__400__127__126__317__316__213__212__289__288__131__130__azure-load-balancers_svg__svg/azure-load-balancers.svg579__svg/azure-load-balancers.svg577__azure-load-balancers-lp-0)"/><path d="m19.824 7.477-3.637-3.618a.204.204 0 0 0-.273 0l-3.637 3.618a.178.178 0 0 0-.058.21.17.17 0 0 0 .195.098h2.129c.105 0 .187.086.187.188v3.43c0 .05.02.097.055.136a.186.186 0 0 0 .133.055h2.266c.05 0 .097-.02.132-.059a.186.186 0 0 0 .055-.133v-3.43c0-.105.086-.187.192-.187h2.125c.082.02.164-.02.199-.098a.182.182 0 0 0-.063-.21M7.477 11.953l-3.602 3.652a.192.192 0 0 0 0 .258l3.602 3.617a.2.2 0 0 0 .21.047.207.207 0 0 0 .118-.183v-2.11c0-.105.082-.187.187-.187h3.43c.047 0 .094-.02.129-.055a.188.188 0 0 0 .043-.133v-2.265a.178.178 0 0 0 .008-.16.174.174 0 0 0-.13-.098H8.044a.188.188 0 0 1-.133-.043.17.17 0 0 1-.055-.129V12.09a.188.188 0 0 0-.003-.152.185.185 0 0 0-.118-.106.206.206 0 0 0-.257.121m17.285 7.527 3.652-3.636a.18.18 0 0 0 0-.254l-3.652-3.637a.187.187 0 0 0-.196-.027.21.21 0 0 0-.113.164v2.144c0 .047-.02.094-.055.13a.177.177 0 0 1-.132.042h-3.43a.184.184 0 0 0-.129.055.182.182 0 0 0-.043.133v2.265a.2.2 0 0 0 .047.13.172.172 0 0 0 .125.058h3.43c.105 0 .187.082.187.187v2.125c.008.07.055.13.121.153a.174.174 0 0 0 .188-.032m0 0" fill="rgb(70.588235%, 92.54902%, 21.176471%)"/><path d="M20.836 16.05a4.782 4.782 0 0 0-4.332-4.792 4.78 4.78 0 0 0-5.156 3.89 4.781 4.781 0 0 0 3.418 5.48v1.63a2.933 2.933 0 1 0 2.691 0v-1.715a4.746 4.746 0 0 0 3.379-4.492m0 0" fill="rgb(100%, 100%, 100%)"/><path d="M18.848 16.035a2.77 2.77 0 0 1-2.778 2.727 2.781 2.781 0 0 1-2.78-2.727 2.781 2.781 0 0 1 2.78-2.726c1.512 0 2.75 1.21 2.778 2.726m0 0" fill="rgb(36.862745%, 62.745098%, 93.72549%)"/></svg>
